X:175
%%pagewidth 8in
%%vocalfont Baskerville10Pro 13
T:Tom a Bedlam
M:C
L:1/8
K:C
%%score 1 2
V:1 clef-treble
V:2 clef-bass octave=-1
[V:1]"_p"AA|c3B A2[FA]2 &E2x6|[B,^G]2E2 z2E2|=G3F E2[B,D]2 &E2x6|[CE]2C2 z2"^cres."C2|
w:Am I mad, O no-ble Fest-us, When zeal and god-ly know-ledge Have
[V:2]z2|A,6D2|E6z2|C6G,2|C,6z2|
[V:1]G2E2 A2[CG]2|[Ec]2[GBd]2 "^f"e3(d/c/) &x4[Gc]2x2|"^p"B2A2 A2^G2 &F4B,4|[CA]2[CEA]2 z4 :||
w:put me~in hope To deal with~the Pope As* well as~the best in Col-lege?
[V:2]z2C2 F2E2|A2G2 c4|D4 E4|A,2A,2 z4 :||
[V:1]"^mf"[CEG]2GG G2AB|[CAc]2[FA]B [Gc]2C2|"^p"[EG]2(GF) E2[B,D]2|[CE]2C2 x4|
w:Bold-ly I preach, hate a cross, hate a sur-plice, Mi-tres,* copes and roch-ets.
[V:2]C8|F,2F2E4|C6G,2|C,4z4|
[V:1][Ee]4 [^Gd]2[EB]2|[CA]2c2 [EB]AGF|E2A2 A2 ^G2 &x4 [B,E]4|[CEA]2[CEA]2z2||
w:Come, hear me pray nine times a day, And fill your heads with crotch-ets.
[V:2]C4B,2^G,2|A4 D4|C2A,2 E4|A,2A,2 z2||

